X: 30664
T: BROOKS' HORNPIPE
C:
%R: hornpipe, reel
B: Elias Howe "The Musician's Companion" Part 3 1844 p.66 #4
S: http://imslp.org/wiki/The_Musician's_Companion_(Howe,_Elias)
S: The above file has page 66 illegible; a readable copy was found at:
S: https://archive.org/stream/firstthirdpartof03howe/#page/66/mode/1up
Z: 2015 John Chambers <jc:trillian.mit.edu>
N: The first pickup note should probably be b, as in bar 4.
M: 2/4
L: 1/16
K: Bb
% - - - - - - - - - - - - - - - - - - - - - - - - -
af |\
d2B2 BdcB | A2F2 F2ED | E2c2 cdcB | A2F2 F2 bf |\
d2B2 BdcB | ABcd efga | babf gece | d2B2B2 :|
|: df |\
gfef bfdf | g2c2 c2f2 | gaba gfdB | G2c2 c2df |\
gfdf bfdf | gfdf bagf | dfdf cfcf | d2B2B2 :|
% - - - - - - - - - - - - - - - - - - - - - - - - -
